Newaita-dark/actions/22/gnumeric-format-border-thick-outside.svg

<svg height="22" viewBox="0 0 22 22" width="22" xmlns="http://www.w3.org/2000/svg"><path d="m4.546875 3.808594h12.734375c.503906 0 .910156.410156.910156.910156v12.734375c0 .503906-.40625.910156-.910156.910156h-12.734375c-.5 0-.910156-.40625-.910156-.910156v-12.734375c0-.5.410156-.910156.910156-.910156zm0 0" fill="#e0e0e0" fill-opacity=".392157"/><path d="m2.730469 10.632812h16.371093v.910157h-16.371093zm0 0" fill="#e0e0e0"/><path d="m11.371094 2.902344v16.371094h-.910156v-16.371094zm0 0" fill="#e0e0e0"/><g fill="#7e57c2"><path d="m3.636719 1.992188c-1.007813 0-1.816407.808593-1.816407 1.816406v14.554687c0 1.007813.808594 1.820313 1.816407 1.820313h14.554687c1.007813 0 1.820313-.8125 1.820313-1.820313v-14.554687c0-1.007813-.8125-1.816406-1.820313-1.816406zm.910156 1.816406h12.734375c.503906 0 .910156.40625.910156.910156v12.734375c0 .503906-.40625.910156-.910156.910156h-12.734375c-.503906 0-.910156-.40625-.910156-.910156v-12.734375c0-.503906.40625-.910156.910156-.910156zm0 0"/><path d="m3.636719 3.355469h1.820312v15.464843h-1.820312zm0 0"/><path d="m18.648438 3.808594v1.820312h-15.464844v-1.820312zm0 0"/><path d="m18.648438 16.542969v1.820312h-15.464844v-1.820312zm0 0"/><path d="m16.371094 3.808594h1.820312v15.464844h-1.820312zm0 0"/></g></svg>

<?xml version="1.0" encoding="UTF-8"?>
<svg xmlns="http://www.w3.org/2000/svg" xmlns:xlink="http://www.w3.org/1999/xlink" width="22px" height="22px" viewBox="0 0 22 22" version="1.1">
<g id="surface1">
<path style=" stroke:none;fill-rule:nonzero;fill:rgb(87.843138%,87.843138%,87.843138%);fill-opacity:0.392157;" d="M 4.546875 3.808594 L 17.28125 3.808594 C 17.785156 3.808594 18.191406 4.21875 18.191406 4.71875 L 18.191406 17.453125 C 18.191406 17.957031 17.785156 18.363281 17.28125 18.363281 L 4.546875 18.363281 C 4.046875 18.363281 3.636719 17.957031 3.636719 17.453125 L 3.636719 4.71875 C 3.636719 4.21875 4.046875 3.808594 4.546875 3.808594 Z M 4.546875 3.808594 "/>
<path style=" stroke:none;fill-rule:nonzero;fill:rgb(87.843138%,87.843138%,87.843138%);fill-opacity:1;" d="M 2.730469 10.632812 L 19.101562 10.632812 L 19.101562 11.542969 L 2.730469 11.542969 Z M 2.730469 10.632812 "/>
<path style=" stroke:none;fill-rule:nonzero;fill:rgb(87.843138%,87.843138%,87.843138%);fill-opacity:1;" d="M 11.371094 2.902344 L 11.371094 19.273438 L 10.460938 19.273438 L 10.460938 2.902344 Z M 11.371094 2.902344 "/>
<path style=" stroke:none;fill-rule:nonzero;fill:rgb(49.411765%,34.117648%,76.078433%);fill-opacity:1;" d="M 3.636719 1.992188 C 2.628906 1.992188 1.820312 2.800781 1.820312 3.808594 L 1.820312 18.363281 C 1.820312 19.371094 2.628906 20.183594 3.636719 20.183594 L 18.191406 20.183594 C 19.199219 20.183594 20.011719 19.371094 20.011719 18.363281 L 20.011719 3.808594 C 20.011719 2.800781 19.199219 1.992188 18.191406 1.992188 Z M 4.546875 3.808594 L 17.28125 3.808594 C 17.785156 3.808594 18.191406 4.214844 18.191406 4.71875 L 18.191406 17.453125 C 18.191406 17.957031 17.785156 18.363281 17.28125 18.363281 L 4.546875 18.363281 C 4.042969 18.363281 3.636719 17.957031 3.636719 17.453125 L 3.636719 4.71875 C 3.636719 4.214844 4.042969 3.808594 4.546875 3.808594 Z M 4.546875 3.808594 "/>
<path style=" stroke:none;fill-rule:nonzero;fill:rgb(49.411765%,34.117648%,76.078433%);fill-opacity:1;" d="M 3.636719 3.355469 L 5.457031 3.355469 L 5.457031 18.820312 L 3.636719 18.820312 Z M 3.636719 3.355469 "/>
<path style=" stroke:none;fill-rule:nonzero;fill:rgb(49.411765%,34.117648%,76.078433%);fill-opacity:1;" d="M 18.648438 3.808594 L 18.648438 5.628906 L 3.183594 5.628906 L 3.183594 3.808594 Z M 18.648438 3.808594 "/>
<path style=" stroke:none;fill-rule:nonzero;fill:rgb(49.411765%,34.117648%,76.078433%);fill-opacity:1;" d="M 18.648438 16.542969 L 18.648438 18.363281 L 3.183594 18.363281 L 3.183594 16.542969 Z M 18.648438 16.542969 "/>
<path style=" stroke:none;fill-rule:nonzero;fill:rgb(49.411765%,34.117648%,76.078433%);fill-opacity:1;" d="M 16.371094 3.808594 L 18.191406 3.808594 L 18.191406 19.273438 L 16.371094 19.273438 Z M 16.371094 3.808594 "/>
</g>
</svg>
